!!!!SEGMENT: pl-wtm--r-1664--006_stefani-jozef--okropnosc-czyli-nowa-lafarge-no-5-allegro-moderato.krn
!!!cenid: 18xx:2061
!!!COM: Stefani, Józef
!!!COM-rismid: pe30024097
!!!CDT: 1800/04/16-1876/03/19
!!!CNT: Polish
!!!OPR: Okropność czyli Nowa Lafarge
!!!OTL: No. 5 - Allegro moderato
!!!OMV: 006
!!!PDT:
!!!AGN: Secular
!!!SMS-siglum: PL-Wtm
!!!SMS-shelfmark: R 1664
!!!SMS-shelfwork: 001-006 M
!!!SMS-variant:
!!!SMS-altvar:
!!!NIFC-rismid: 1001114328
!!!URL-scan: http://repozytorium.nifc.pl/skany/pl-wtm-nut--r1664
!!!ONB-nifc: UWAGA: skany 0024-0027
!!!OMD: No 5. All..o mod..to
**kern	**dynam	**kern	**dynam	**kern	**text	**kern	**dynam	**kern	**dynam	**kern	**dynam	**kern	**kern	**kern	**kern	**dynam	**kern	**dynam	**kern	**dynam	**kern	**dynam	**kern	**dynam	**kern	**dynam
*	*	*	*	*	*	*	*	*group1	*	*group1	*	*	*	*	*	*	*	*	*	*	*	*	*	*	*	*
*	*	*	*	*	*	*	*	*I""Violini	*	*	*	*	*	*	*	*	*	*	*	*	*	*	*	*	*	*
*	*	*	*	*	*	*	*	*I'vli	*	*	*	*	*	*	*	*	*	*	*	*	*	*	*	*	*	*
*part15	*part15	*part14	*part14	*part13	*part13	*part12	*part12	*part11	*part11	*part10	*part10	*part9	*part8	*part7	*part6	*part6	*part5	*part5	*part4	*part4	*part3	*part3	*part2	*part2	*part1	*part1
*staff15	*	*staff14	*	*staff13	*staff13	*staff12	*	*staff11	*	*staff10	*	*staff9	*staff8	*staff7	*staff6	*	*staff5	*	*staff4	*	*staff3	*	*staff2	*	*staff1	*
*Icbass	*	*Icello	*	*Iempty	*	*Iviola	*	*Iempty	*	*Iempty	*	*Ivioln	*Itimpa	*Itromt	*Itromp	*	*Ifagot	*	*Icor	*	*Iclars	*	*Ioboe	*	*Iflt	*
*I"C: Baſsi	*	*I"Violoncelli	*	*I"Szymon	*	*I"Viole	*	*	*	*	*	*I"Violino Solo	*I"c. F. Timpani	*I"Trombone	*I"in C Trombe	*	*I"Fagoto	*	*I"in F. Corni	*	*I"in C. Clarinetti	*	*I"Oboe	*	*I"Flauto	*
*I'cb	*	*I'vlc	*	*I'T	*	*I'vla	*	*	*	*	*	*I'vl solo	*I'timp	*I'trb	*I'tr in C	*	*I'fag	*	*I'cor in F	*	*I'cl in C	*	*I'ob	*	*I'fl	*
*clefF4	*	*clefF4	*	*clefG2	*	*clefC3	*	*clefG2	*	*clefG2	*	*clefG2	*clefF4	*clefF4	*clefG2	*	*clefF4	*	*clefG2	*	*clefG2	*	*clefG2	*	*clefG2	*
*	*	*	*	*	*	*	*	*	*	*	*	*	*	*	*	*	*	*	*ITrd4c7	*	*	*	*	*	*	*
*k[]	*	*k[]	*	*k[]	*	*k[]	*	*k[]	*	*k[]	*	*k[]	*k[]	*k[]	*k[]	*	*k[]	*	*	*	*k[]	*	*k[]	*	*k[]	*
*C:	*	*C:	*	*C:	*	*C:	*	*C:	*	*C:	*	*C:	*C:	*C:	*C:	*	*C:	*	*	*	*C:	*	*C:	*	*C:	*
*M2/4	*	*M2/4	*	*M2/4	*	*M2/4	*	*M2/4	*	*M2/4	*	*M2/4	*M2/4	*M2/4	*M2/4	*	*M2/4	*	*M2/4	*	*M2/4	*	*M2/4	*	*M2/4	*
*	*	*	*	*	*	*	*	*	*	*	*	*	*	*	*	*	*	*	*	*	*^	*	*	*	*	*
!	!	!	!	!	!	!	!	!	!	!	!	!LO:TX:a:t=P:problem:partia występująca w Introdukcji	!	!	!	!	!	!	!	!	!	!	!	!	!LO:DY:rj	!	!
4r	.	4r	.	4r	.	4r	.	4r	.	4r	.	4ryy	4ryy	4r	4r	.	4r	.	4r	.	8g/L	4r	.	8gg'\L	mf	8gg'\L	.
.	.	.	.	.	.	.	.	.	mf	.	.	.	.	.	.	.	.	.	.	.	8g/J	.	.	8gg'\J	.	8gg'\J	.
=1	=1	=1	=1	=1	=1	=1	=1	=1	=1	=1	=1	=1	=1	=1	=1	=1	=1	=1	=1	=1	=1	=1	=1	=1	=1	=1	=1
!	!LO:DY:rj	!	!LO:DY:rj	!	!	!	!	!	!	!	!	!	!	!	!	!	!	!	!	!	!	!	!	!	!	!	!
8BB/	mf	8BB/yy	mfyy	2r	.	8r	.	8r	.	2r	.	2ryy	2ryy	2r	2r	.	2r	.	2r	.	(8a/L	2re	.	(8aa\L	.	(8aa\L	.
8r	.	8ryy	.	.	.	8d\	.	8f 8G/	.	.	.	.	.	.	.	.	.	.	.	.	8g/)	.	.	8gg\)	.	8gg\)	.
8GG/	.	8GG/yy	.	.	.	8r	.	8r	.	.	.	.	.	.	.	.	.	.	.	.	8g'/	.	.	8gg'\	.	8gg'\	.
8r	.	8ryy	.	.	.	8d\	.	8f 8G/	.	.	.	.	.	.	.	.	.	.	.	.	8g'/J	.	.	8gg'\J	.	8gg'\J	.
=2	=2	=2	=2	=2	=2	=2	=2	=2	=2	=2	=2	=2	=2	=2	=2	=2	=2	=2	=2	=2	=2	=2	=2	=2	=2	=2	=2
.	.	.	.	.	.	.	.	.	.	.	.	.	.	.	.	.	.	.	.	.	8qb/	.	.	(8qbb/	.	(8qbb/	.
8C/	.	8C/yy	.	2r	.	8r	.	8r	.	4r	.	2ryy	2ryy	4r	4r	.	4r	.	4r	.	8a/L	4r	.	(8aa\L)	.	(8aa\L)	.
8r	.	8ryy	.	.	.	8c\	.	8e 8G/	.	.	.	.	.	.	.	.	.	.	.	.	8g/J	.	.	8gg\J)	.	8gg\J)	.
!	!LO:DY:rj	!	!LO:DY:rj	!	!	!	!	!	!	!	!LO:DY:rj	!	!	!	!	!LO:DY:rj	!	!LO:DY:rj	!	!	!	!	!	!	!	!	!
8E\	f	8E\yy	fyy	.	.	8r	.	8r	.	8gg'\L	f	.	.	4E\	8g/L	f	8E\L	f	8r	.	8g/L	8r	.	4r	.	8gg'\L	f
!	!	!	!	!	!	!	!	!	!LO:DY:rj	!	!	!	!	!	!	!	!	!	!	!LO:DY:rj	!	!	!	!	!	!	!
8r	.	8ryy	.	.	.	8e 8G\	.	8g 8c/	f	8ccc'\J	.	.	.	.	8cc/J	.	8C\J	.	8g 8c/	f	8cc/J	8g\	.	.	.	8ccc'\J	.
=3	=3	=3	=3	=3	=3	=3	=3	=3	=3	=3	=3	=3	=3	=3	=3	=3	=3	=3	=3	=3	=3	=3	=3	=3	=3	=3	=3
*	*	*	*	*	*	*	*	*	*	*	*	*	*	*	*	*	*	*	*^	*	*	*	*	*	*	*	*
!	!	!	!	!	!	!	!	!	!	!	!	!	!	!	!	!	!LO:TX:t=P:problem:mixed beam	!	!	!	!	!	!	!	!	!	!	!
8F\	.	8F\yy	.	2r	.	8r	.	8r	.	8aa\L	.	2ryy	2ryy	8F\L	8a/L	.	8F\L	.	8r	8ryy	.	8a/L	8r	.	2r	.	8aa'\L	.
8r	.	8ryy	.	.	.	8d\	.	8f 8A/	.	8ddd\J	.	.	.	8D\J	8dd/J	.	8D\	.	8a 8f\	8ryy	.	8dd/	8f\	.	.	.	8ddd'\	.
8G\	.	8G\yy	.	.	.	8r	.	8r	.	8gg\L	.	.	.	4G\	8g/L	.	8G\	.	8r	8ryy	.	8g/	8r	.	.	.	8gg'\	.
8r	.	8ryy	.	.	.	8d 8G\	.	8f 8G/	.	8bb\J	.	.	.	.	8b/J	.	8GG/J	.	8g/	8g\	.	8b/J	8f\	.	.	.	8bb'\J	.
=4	=4	=4	=4	=4	=4	=4	=4	=4	=4	=4	=4	=4	=4	=4	=4	=4	=4	=4	=4	=4	=4	=4	=4	=4	=4	=4	=4	=4
8C/	.	8C/yy	.	4r;	.	8c\	.	8e 8G/	.	8ccc\	.	2ryy	2ryy	8C/	8cc\	.	8C/	.	8g 8c\	4ryy	.	8cc/	8e\	.	4r;	.	8ccc\	.
8r;	.	8r;yy	.	.	.	8r;	.	8r;	.	8r;	.	.	.	8r;	8r;	.	8r;	.	8r;	.	.	8r;	8ryy	.	.	.	8r;	.
!	!	!	!	!	!	!	!	!	!	!	!	!	!	!	!	!	!	!	!	!	!LO:DY:a	!	!	!	!	!LO:DY:rj	!	!
4r	.	4ryy	.	8g/	Pó-	4r	.	4r	.	4r	.	.	.	4r	4r	.	4r	.	8g'/L	4re	p	4r	4ryy	.	8gg'\L	p	4r	.
.	.	.	.	8g/	-kiś	.	.	.	.	.	.	.	.	.	.	.	.	.	8g'/J	.	.	.	.	.	8gg'\J	.	.	.
*	*	*	*	*	*	*	*	*	*	*	*	*	*	*	*	*	*	*	*	*	*	*v	*v	*	*	*	*	*
!!LO:PB:g=original
=5	=5	=5	=5	=5	=5	=5	=5	=5	=5	=5	=5	=5	=5	=5	=5	=5	=5	=5	=5	=5	=5	=5	=5	=5	=5	=5	=5
8BB/	.	8BB/yy	.	8a/	trzy-	8r	.	8r	p	2r	.	2ryy	2r	2r	2r	.	2r	.	(8a^</L	2re	.	2r	.	(8aa^<\L	.	2r	.
8r	.	8ryy	.	8g/	-mał	8d\	.	8f 8G/	.	.	.	.	.	.	.	.	.	.	8g/J)	.	.	.	.	8gg\J)	.	.	.
8GG/	.	8GG/yy	.	8g/	sklep	8r	.	8r	.	.	.	.	.	.	.	.	.	.	8g/L	.	.	.	.	8gg'\L	.	.	.
8r	.	8ryy	.	8g/	ko-	8d\	.	8f 8G/	.	.	.	.	.	.	.	.	.	.	8g/J	.	.	.	.	8gg'\J	.	.	.
=6	=6	=6	=6	=6	=6	=6	=6	=6	=6	=6	=6	=6	=6	=6	=6	=6	=6	=6	=6	=6	=6	=6	=6	=6	=6	=6	=6
8C/	.	8C/yy	.	8a/	-rzen-	8r	.	8r	.	2r	.	2ryy	2ryy	2r	2r	.	2r	.	(8a/L	2re	.	2r	.	(8aa^<\L	.	2r	.
8r	.	8ryy	.	8g/	-ny	8c\	.	8e 8G/	.	.	.	.	.	.	.	.	.	.	8g/J)	.	.	.	.	8gg\J)	.	.	.
8C/	.	8C/yy	.	8g/	pó-	8r	.	8r	.	.	.	.	.	.	.	.	.	.	8g'/L	.	.	.	.	8gg'\L	.	.	.
8r	.	8ryy	.	8g/	-ty	8c\	.	8e 8G/	.	.	.	.	.	.	.	.	.	.	8g'/J	.	.	.	.	8gg'\J	.	.	.
=7	=7	=7	=7	=7	=7	=7	=7	=7	=7	=7	=7	=7	=7	=7	=7	=7	=7	=7	=7	=7	=7	=7	=7	=7	=7	=7	=7
8C/	.	8C/yy	.	8e/	by-	8r	.	8r	.	8ee'\L	.	2ryy	2ryy	2r	2r	.	2r	.	8e/L	2re	.	2r	.	2r	.	2r	.
8r	.	8ryy	.	8g/	-łeś	8c\	.	8e 8G/	.	8gg'\J	.	.	.	.	.	.	.	.	8g/J	.	.	.	.	.	.	.	.
8GG/	.	8GG/yy	.	8d/	Pan	8r	.	8r	.	8dd'\L	.	.	.	.	.	.	.	.	8d/L	.	.	.	.	.	.	.	.
8r	.	8ryy	.	8g/	bez-	8B/	.	8d 8G/	.	8gg'\J	.	.	.	.	.	.	.	.	8g/J	.	.	.	.	.	.	.	.
=8	=8	=8	=8	=8	=8	=8	=8	=8	=8	=8	=8	=8	=8	=8	=8	=8	=8	=8	=8	=8	=8	=8	=8	=8	=8	=8	=8
8C/	.	8C/yy	.	8e/	-żen-	8r	.	8r	.	8ee'\L	.	2ryy	2ryy	2r	2r	.	2r	.	8e/L	2re	.	2r	.	4r	.	2r	.
8r	.	8ryy	.	8g/	-ny,	8c\	.	8e 8G/	.	8gg'\J	.	.	.	.	.	.	.	.	8g/J	.	.	.	.	.	.	.	.
4r	.	4ryy	.	8g/	Dziś	4r	.	4r	.	4r	.	.	.	.	.	.	.	.	8g'/L	.	.	.	.	8gg'\L	.	.	.
.	.	.	.	8g/	zmie-	.	.	.	.	.	.	.	.	.	.	.	.	.	8g'/J	.	.	.	.	8gg'\J	.	.	.
=9	=9	=9	=9	=9	=9	=9	=9	=9	=9	=9	=9	=9	=9	=9	=9	=9	=9	=9	=9	=9	=9	=9	=9	=9	=9	=9	=9
8BB/	.	8BB/yy	.	8a/	-ni-	8r	.	8f 8G/	.	2r	.	2ryy	2ryy	2r	2r	.	2r	.	(8a/L	2re	.	2r	.	(8aa^<\L	.	2r	.
8r	.	8ryy	.	8g/	-łes	8d\	.	8r	.	.	.	.	.	.	.	.	.	.	8g/J)	.	.	.	.	8gg\J)	.	.	.
8GG/	.	8GG/yy	.	8g/	rze-	8r	.	8f 8G/	.	.	.	.	.	.	.	.	.	.	8g'/L	.	.	.	.	8gg'\L	.	.	.
8r	.	8ryy	.	8g/	-czy	8d\	.	8r	.	.	.	.	.	.	.	.	.	.	8g'/J	.	.	.	.	8gg'\J	.	.	.
!!LO:PB:g=original
=10	=10	=10	=10	=10	=10	=10	=10	=10	=10	=10	=10	=10	=10	=10	=10	=10	=10	=10	=10	=10	=10	=10	=10	=10	=10	=10	=10
8C/	.	8C/yy	.	8a/	po-	8r	.	8r	.	4r	.	2ryy	2ryy	2r	2r	.	4r	.	(8a/L	2re	.	2r	.	(8aa\L	.	2r	.
8r	.	8ryy	.	8g/	-stać	8c\	.	8e 8G/	.	.	.	.	.	.	.	.	.	.	8g/J)	.	.	.	.	8gg\J)	.	.	.
!	!	!	!	!	!	!	!	!	!	!	!	!	!	!	!	!	!	!LO:DY:rj	!	!	!	!	!	!	!	!	!
8E\	.	8E\yy	.	8g/	Chcąc	8r	.	8r	.	8gg'\L	.	.	.	.	.	.	(4E\	p	8g'/L	.	.	.	.	4r	.	.	.
8r	.	8ryy	.	8cc\	ko-	8e 8c\	.	8g 8G/	.	8ccc'\J	.	.	.	.	.	.	.	.	8cc'/J	.	.	.	.	.	.	.	.
=11	=11	=11	=11	=11	=11	=11	=11	=11	=11	=11	=11	=11	=11	=11	=11	=11	=11	=11	=11	=11	=11	=11	=11	=11	=11	=11	=11
8F\	.	8F\yy	.	8a/	-niecz-	8r	.	8r	.	8aa'\L	.	2ryy	2ryy	2r	2r	.	4F\	.	8a/L	2re	.	2r	.	2r	.	2r	.
8r	.	8ryy	.	8f/	-nie	8d\	.	8f 8A/	.	8ff'\	.	.	.	.	.	.	.	.	8f/J	.	.	.	.	.	.	.	.
8G\	.	8G\yy	.	8d/	mę-	8r	.	8r	.	8dd'\	.	.	.	.	.	.	4G\)	.	8d/L	.	.	.	.	.	.	.	.
8r	.	8ryy	.	8g/	-żem	8d 8B\	.	8f 8G/	.	8gg'\J	.	.	.	.	.	.	.	.	8g/J	.	.	.	.	.	.	.	.
=12	=12	=12	=12	=12	=12	=12	=12	=12	=12	=12	=12	=12	=12	=12	=12	=12	=12	=12	=12	=12	=12	=12	=12	=12	=12	=12	=12
*	*	*	*	*	*	*	*	*	*	*	*	*	*	*	*	*	*	*	*	*	*	*^	*	*	*	*	*
8C/	.	8C/yy	.	8g/	zo-	8r	.	8r	.	8gg'\L	.	2ryy	2ryy	4r	4r	.	8C/	.	8g/L	4r	.	4r	4ryy	.	4r	.	4r	.
8r	.	8ryy	.	8c/	-stać.	8c\	.	8e 8G/	.	8cc'\J	.	.	.	.	.	.	8r	.	8c/J	.	.	.	.	.	.	.	.	.
!	!LO:DY:rj	!	!LO:DY:rj	!	!	!	!	!	!	!	!LO:DY:rj	!	!	!	!	!LO:DY:rj	!	!LO:DY:rj	!	!	!LO:DY:rj	!	!	!LO:DY:rj	!	!	!	!
8E\	f	8E\yy	fyy	4r	.	8r	.	8r	f	8g'/L	f	.	.	4E\	8g/L	f	4E\	f	4g 4c/	4ryy	f	8g/L	4g\	f	8g'/L	.	8gg'\L	f
8r	.	8ryy	.	.	.	8c\	.	8g 8G/	.	8cc'/J	.	.	.	.	8cc/J	.	.	.	.	.	.	8cc/J	.	.	8cc'/J	.	8ccc'\J	.
*	*	*	*	*	*	*	*	*	*	*	*	*	*	*	*	*	*	*	*v	*v	*	*	*	*	*	*	*	*
=13	=13	=13	=13	=13	=13	=13	=13	=13	=13	=13	=13	=13	=13	=13	=13	=13	=13	=13	=13	=13	=13	=13	=13	=13	=13	=13	=13
8F\L	.	8F\Lyy	.	2r	.	8r	.	8r	.	8a'\L	.	2ryy	2ryy	8F\L	8a~\L	.	8F\L	.	4a 4f\	.	8a/L	4f\	.	8a'\L	.	8aa'\L	.
8D\J	.	8D\Jyy	.	.	.	8d\	.	8f 8A/	.	(16ee\L	.	.	.	8D\J	(16ee\L	.	8D\J	.	.	.	16ee/L	.	.	(16ee\L	.	(16eee\L	.
.	.	.	.	.	.	.	.	.	.	16dd\JJ)	.	.	.	.	16dd\JJ	.	.	.	.	.	16dd/JJ	.	.	16dd\JJ)	.	16ddd\JJ	.
!LO:TX:t=P:problem:mixed beam	!	!LO:TX:t=P:problem:mixed beam	!	!	!	!	!	!	!	!	!	!	!	!	!	!	!LO:TX:t=P:problem:mixed beam	!	!	!	!	!	!	!	!	!	!
8G\L	.	8G\Lyy	.	.	.	8c\L	.	8eL 8G/	.	8cc\L	.	.	.	4G\	8cc\L)	.	8G\L	.	8gL 8c/	.	8ccL 8e/	4ryy	.	8cc\L	.	8ccc\L)	.
8GG/J	.	8GG/Jyy	.	.	.	8d\J	.	8fJ 8G/	.	8b\J	.	.	.	.	8b\J	.	8GG/J	.	8gJ 8f/	.	8bJ 8d/	.	.	8b\J	.	8bb\J	.
*	*	*	*	*	*	*	*	*	*	*	*	*	*	*	*	*	*	*	*	*	*v	*v	*	*	*	*	*
=14	=14	=14	=14	=14	=14	=14	=14	=14	=14	=14	=14	=14	=14	=14	=14	=14	=14	=14	=14	=14	=14	=14	=14	=14	=14	=14
8C/	.	8C/yy	.	4r	.	8c\	.	8e 8G/	.	8cc\	.	2ryy	2ryy	8C/	8cc\	.	8C/	.	8g 8c/	.	8cc 8e/	.	8cc\	.	8ccc\	.
8r	.	8ryy	.	.	.	8r	.	8r	.	8r	p	.	.	8r	8r	.	8r	.	8r	.	8r	.	8r	.	8r	.
!	!LO:DY:rj	!	!LO:DY:rj	!	!	!	!LO:DY:rj	!	!LO:DY:rj	!	!	!	!	!	!	!	!	!	!	!	!	!	!	!	!	!
8AA/L	p	8AA/Lyy	pyy	8cc\	Mój	8c\L	p	8e/L	p	8cc\L	.	.	.	4r	4r	.	4r	.	4r	.	4r	.	4r	.	4r	.
8AA/J	sf	8AA/Jyy	sfyy	8cc\	my-	8c\J	sf	8e/J	sf	8cc\J	sf	.	.	.	.	.	.	.	.	.	.	.	.	.	.	.
!!LO:PB:g=original
=15	=15	=15	=15	=15	=15	=15	=15	=15	=15	=15	=15	=15	=15	=15	=15	=15	=15	=15	=15	=15	=15	=15	=15	=15	=15	=15
8D\L	.	8D\Lyy	.	8b\	-śle-	8d\L	.	8f/L	.	8b/L	.	2ryy	2ryy	2r	2r	.	2r	.	2r	.	2r	.	2r	.	2r	.
8D\J	sf	8D\Jyy	sfyy	8b\	-nia	8d\J	.	8f/J	sf	8b/J	sf	.	.	.	.	.	.	.	.	.	.	.	.	.	.	.
8D#X\L	.	8D#X\Lyy	.	8a\	spo-	8B/L	.	8f#X/L	.	8a/L	.	.	.	.	.	.	.	.	.	.	.	.	.	.	.	.
8D#\J	sf	8D#\Jyy	sfyy	8a\	-sób	8B/J	.	8f#/J	sf	8a/J	sf	.	.	.	.	.	.	.	.	.	.	.	.	.	.	.
=16	=16	=16	=16	=16	=16	=16	=16	=16	=16	=16	=16	=16	=16	=16	=16	=16	=16	=16	=16	=16	=16	=16	=16	=16	=16	=16
*	*	*	*	*	*	*	*	*	*	*	*	*	*	*	*	*	*	*	*	*	*^	*	*	*	*	*
4E;\	.	4E;\yy	.	8g#X;/	in-	8B;/	.	8e;/	.	8g#X;/	.	2ryy	2ryy	4r;	4r;	.	4r;	.	4r;	.	4r;	4r	.	4r;	.	4r;	.
.	.	.	.	8e;/	-ny,	8G#X;/	.	8B;/	.	8e;/	.	.	.	.	.	.	.	.	.	.	.	.	.	.	.	.	.
!	!	!	!	!	!	!	!	!	!	!	!	!	!	!	!	!	!	!	!	!	!	!	!	!	!LO:DY:rj	!	!
4r	.	4ryy	.	8e/	Ten	4r	.	4r	.	4r	.	.	.	4r	4r	.	4r	.	4r	.	8e/L	4r	.	8ee'\L	p	4r	.
.	.	.	.	8e/	co	.	.	.	.	.	.	.	.	.	.	.	.	.	.	.	8e/J	.	.	8ee'\J	.	.	.
=17	=17	=17	=17	=17	=17	=17	=17	=17	=17	=17	=17	=17	=17	=17	=17	=17	=17	=17	=17	=17	=17	=17	=17	=17	=17	=17	=17
*	*	*	*	*	*	*	*	*	*	*	*	*	*	*	*	*	*	*	*^	*	*	*	*	*	*	*	*
8D\	sf	8D\yy	sfyy	8f/	zwi-	8r	.	8r	.	8r	p	2ryy	2ryy	2r	2r	.	2r	.	4r	4ryy	.	8f/L	2re	.	8ff'\L	.	2r	.
8r	.	8ryy	.	8f/	-ja	8d\	.	8B/	sf	8f/	sf	.	.	.	.	.	.	.	.	.	.	8f/	.	.	8ff'\	.	.	.
!	!LO:DY:rj	!	!LO:DY:rj	!	!	!	!	!	!	!	!	!	!	!	!	!	!	!	!	!	!LO:DY:rj	!	!	!	!	!	!	!
8GG/	p	8GG/yy	pyy	8d/	sklep	8r	.	8r	.	8r	.	.	.	.	.	.	.	.	4g/	4g\	p	8d/	.	.	8dd'\	.	.	.
!	!	!	!	!	!	!	!	!	!LO:DY:rj	!	!LO:DY:rj	!	!	!	!	!	!	!	!	!	!	!	!	!	!	!	!	!
8r	.	8ryy	.	8g/	swój	8d\	.	8B/	p	8f 8G/	p	.	.	.	.	.	.	.	.	.	.	8g/J	.	.	8gg'\J	.	.	.
=18	=18	=18	=18	=18	=18	=18	=18	=18	=18	=18	=18	=18	=18	=18	=18	=18	=18	=18	=18	=18	=18	=18	=18	=18	=18	=18	=18	=18
8C/	.	8C/yy	.	8e/	win-	8r	.	8r	.	8r	.	2ryy	2ryy	2r	2r	.	2r	.	4g 4c/	4ryy	.	(8e/L	2re	.	(8ee\L	.	2r	.
8r	.	8ryy	.	8g/	-ny	8c\	.	8c/	.	8e 8G/	.	.	.	.	.	.	.	.	.	.	.	8g/J)	.	.	8gg\J)	.	.	.
4r	.	4ryy	.	8g/	Ten	4r	.	4r	.	8g'/L	.	.	.	.	.	.	.	.	8g/L	4rd	.	4r	.	.	8gg'\L	.	.	.
.	.	.	.	8g/	co	.	.	.	.	8g'/J	.	.	.	.	.	.	.	.	8g/J	.	.	.	.	.	8gg'\J	.	.	.
=19	=19	=19	=19	=19	=19	=19	=19	=19	=19	=19	=19	=19	=19	=19	=19	=19	=19	=19	=19	=19	=19	=19	=19	=19	=19	=19	=19	=19
8BB/	.	8BB/yy	.	8a/	zwi-	8r	.	8r	.	(8a/L	.	2ryy	2ryy	2r	2r	.	2r	.	(8a/L	2re	.	2r	2re	.	(8aa\L	.	2r	.
8r	.	8ryy	.	8g/	-ja	8d\	.	8f 8G/	.	8g/J)	.	.	.	.	.	.	.	.	8g/J)	.	.	.	.	.	8gg\J)	.	.	.
8GG/	.	8GG/yy	.	8g/	skład	8r	.	8r	.	8g'/L	.	.	.	.	.	.	.	.	8g'/L	.	.	.	.	.	8gg'\L	.	.	.
8r	.	8ryy	.	8g/	ko-	8d\	.	8f 8G/	.	8g'/J	.	.	.	.	.	.	.	.	8g'/J	.	.	.	.	.	8gg'\J	.	.	.
*	*	*	*	*	*	*	*	*	*	*	*	*	*	*	*	*	*	*	*	*	*	*v	*v	*	*	*	*	*
!!LO:PB:g=original
=20	=20	=20	=20	=20	=20	=20	=20	=20	=20	=20	=20	=20	=20	=20	=20	=20	=20	=20	=20	=20	=20	=20	=20	=20	=20	=20	=20
8C/	.	8C/yy	.	8a/	-rze-	8r	.	8r	.	(8a/L	.	2ryy	2ryy	2r	2r	.	4r	.	(8a/L	4rg	.	2r	.	(8aa\L	.	4r	.
8r	.	8ryy	.	8g/	-ni	8c\	.	8e 8G/	.	8g/J)	.	.	.	.	.	.	.	.	8g/J)	.	.	.	.	8gg\J)	.	.	.
8E\	.	8E\yy	.	8g/	Głup-	8r	.	8r	.	8g'/L	.	.	.	.	.	.	(4E\	.	(4g 4c/	4ryy	<	.	.	8g/L	.	8gg'\L	.
8r	.	8ryy	.	8cc\	-stwo	8e 8c\	.	8g 8G/	.	8cc'/J	.	.	.	.	.	.	.	.	.	.	.	.	.	8cc/J	.	8ccc'\J	.
*	*	*	*	*	*	*	*	*	*	*	*	*	*	*	*	*	*	*	*v	*v	*	*	*	*	*	*	*
=21	=21	=21	=21	=21	=21	=21	=21	=21	=21	=21	=21	=21	=21	=21	=21	=21	=21	=21	=21	=21	=21	=21	=21	=21	=21	=21
8F\	.	8F\yy	.	8a/	ro-	8r	.	8r	.	8a/L	.	2ryy	2ryy	2r	2r	.	8F\)	.	8a 8f\)	[	2r	.	8a/L	.	8aa'\L	.
8r	.	8ryyyy	.	8dd\	-bi	8d\	.	8f 8A/	.	8dd/J	.	.	.	.	.	.	8r	.	8r	.	.	.	8dd/J	.	8ddd'\J	.
8G\	.	8G\yy	.	8g/	gdy	8r	.	8r	.	8g/L	.	.	.	.	.	.	4r	.	4r	.	.	.	8g/L	.	8gg'\L	.
8r	.	8ryy	.	8b\	się	8d\	.	8f 8G/	.	8b/J	.	.	.	.	.	.	.	.	.	.	.	.	8b/J	.	8bb'\J	.
=22	=22	=22	=22	=22	=22	=22	=22	=22	=22	=22	=22	=22	=22	=22	=22	=22	=22	=22	=22	=22	=22	=22	=22	=22	=22	=22
8C/	.	8C/yy	.	8cc\	że-	8r	.	8r	.	(8cc/L	.	2ryy	2ryy	2r	2r	.	4r	.	4r	.	2r	.	8cc/L	.	(8ccc\L	.
8r	.	8ryy	.	8g/	-ni	8c\	.	8e 8G/	.	8g/J)	.	.	.	.	.	.	.	.	.	.	.	.	8g/J	.	8gg\J)	.
8E\	.	8E\yy	.	8g/	głup-	8r	.	8r	.	8g/L	.	.	.	.	.	.	(4E\	.	4g 4c/	<	.	.	8g/L	.	8gg'\L	.
8r	.	8ryy	.	8cc\	-stwo	8e 8c\	.	8g 8G/	.	8cc/J	.	.	.	.	.	.	.	.	.	.	.	.	8cc/J	.	8ccc'\J	.
=23	=23	=23	=23	=23	=23	=23	=23	=23	=23	=23	=23	=23	=23	=23	=23	=23	=23	=23	=23	=23	=23	=23	=23	=23	=23	=23
8F\	.	8F\yy	.	8a/	ro-	8r	.	8r	.	(8a/L	.	2ryy	2ryy	2r	2r	.	8F\)	.	8a 8f\	[	2r	.	(8a/L	.	(8aa\L	.
8r	.	8ryy	.	8f/	-bi	8d\	.	8f 8A/	.	8f/J)	.	.	.	.	.	.	8r	.	8r	.	.	.	8f/J)	.	8ff\J)	.
8G\	.	8G\yy	.	8d/	Gdy	8r	.	8r	.	8d'/L	.	.	.	.	.	.	4r	.	4r	.	.	.	8d'/L	.	8dd'\L	.
8r	.	8ryy	.	8g/	się	8d 8B\	.	8f 8G/	.	8g'/J	.	.	.	.	.	.	.	.	.	.	.	.	8g'/J	.	8gg'\J	.
=24	=24	=24	=24	=24	=24	=24	=24	=24	=24	=24	=24	=24	=24	=24	=24	=24	=24	=24	=24	=24	=24	=24	=24	=24	=24	=24
8C/	.	8C/yy	.	8g/	że-	8r	.	8r	.	(8g/L	.	2ryy	2ryy	4r	4r	.	4r	.	4r	.	4r	.	8g/L	.	8gg\L	.
8r	.	8ryy	.	8c/	-ni.	8c\	.	8e 8G/	.	8c/J)	.	.	.	.	.	.	.	.	.	.	.	.	8c/J	.	8cc\J	.
!	!LO:DY:rj	!	!LO:DY:rj	!	!	!	!	!	!	!	!LO:DY:rj	!	!	!	!	!	!	!	!	!	!	!	!	!	!	!
8C/	f	8C/yy	fyy	4r	.	8r	f	8r	f	(16gg\LL	f	.	.	8C/	(16a/LL	.	8C/	.	8r	.	8r	.	(16gg\LL	.	(16ggg\LL	.
.	.	.	.	.	.	.	.	.	.	16ff\)	.	.	.	.	16g/)	.	.	.	.	.	.	.	16ff\)	.	16fff\)	.
8r	.	8ryy	.	.	.	8c\	.	8e 8G/	.	16ee'\	.	.	.	8r	16e'/	.	8r	.	8g 8c/	.	8cc 8e/	.	16ee'\	.	16eee'\	.
.	.	.	.	.	.	.	.	.	.	16cc'\JJ	.	.	.	.	16c'/JJ	.	.	.	.	.	.	.	16cc'\JJ	.	16ccc'\JJ	.
!!LO:PB:g=original
=25	=25	=25	=25	=25	=25	=25	=25	=25	=25	=25	=25	=25	=25	=25	=25	=25	=25	=25	=25	=25	=25	=25	=25	=25	=25	=25
*	*	*	*	*	*	*	*	*	*	*	*	*	*	*	*	*	*	*	*	*	*	*	*	*	*8va	*
!	!	!	!	!	!	!	!	!	!	!	!	!	!	!	!	!	!LO:TX:a:t=col b&colon;	!	!	!	!	!	!LO:TX:a:t=col v.o I.o	!	!LO:TX:a:t=col v.o I.o 8.va	!
8D\	.	8D\yy	.	2r	.	8r	.	8r	.	8b'\L	.	2ryy	2ryy	8D\	8B'/L	.	8D\yy	.	8r	.	8r	.	8b'\Lyy	.	8bb'\Lyy	.
8r	.	8ryy	.	.	.	8B/	.	8f 8G/	.	8b'\J	.	.	.	8r	8B'/J	.	8ryy	.	8g\	.	8b 8f/	.	8b'\Jyy	.	8bb'\Jyy	.
8GG/	.	8GG/yy	.	.	.	8r	.	8r	.	(16aa\LL	.	.	.	8GG/	(16a/LL	.	8GG/yy	.	8r	.	8r	.	(yy16aa\LLyy	.	(yy16aaa\LLyy	.
.	.	.	.	.	.	.	.	.	.	16gg\)	.	.	.	.	16g/)	.	.	.	.	.	.	.	16gg\)yy	.	16ggg\)yy	.
8r	.	8ryy	.	.	.	8B/	.	8f 8G/	.	16ff'\	.	.	.	8r	16f'/	.	8ryy	.	8g\	.	8b 8f/	.	16ff'\yy	.	16fff'\yy	.
.	.	.	.	.	.	.	.	.	.	16dd'\JJ	.	.	.	.	16d'/JJ	.	.	.	.	.	.	.	16dd'\JJyy	.	16ddd'\JJyy	.
=26	=26	=26	=26	=26	=26	=26	=26	=26	=26	=26	=26	=26	=26	=26	=26	=26	=26	=26	=26	=26	=26	=26	=26	=26	=26	=26
8C/	.	8C/yy	.	2r	.	8r	.	8r	.	8cc'\L	.	2ryy	2ryy	8C/	8c'/L	.	8C/yy	.	8r	.	8r	.	8cc'\Lyy	.	8ccc'\Lyy	.
8r	.	8ryy	.	.	.	8c\	.	8e 8G/	.	8cc'\J	.	.	.	8r	8c'/J	.	8ryy	.	8g 8c\	.	8cc 8e/	.	8cc'\Jyy	.	8ccc'\Jyy	.
8F\	.	8F\yy	.	.	.	8r	.	8r	.	(16a\LL	.	.	.	8F\	(16A/LL	.	8F\yy	.	8r	.	8r	.	(yy16a\LLyy	.	(yy16aa\LLyy	.
.	.	.	.	.	.	.	.	.	.	16cc#X\)	.	.	.	.	16c#X/)	.	.	.	.	.	.	.	16cc#X\)yy	.	16ccc#X\)yy	.
8r	.	8ryy	.	.	.	8d\	.	8f 8A/	.	16dd'\	.	.	.	8r	16d'/	.	8ryy	.	8a 8f\	.	8dd 8f/	.	16dd'\yy	.	16ddd'\yy	.
.	.	.	.	.	.	.	.	.	.	16ff'\JJ	.	.	.	.	16f'/JJ	.	.	.	.	.	.	.	16ff'\JJyy	.	16fff'\JJyy	.
=27	=27	=27	=27	=27	=27	=27	=27	=27	=27	=27	=27	=27	=27	=27	=27	=27	=27	=27	=27	=27	=27	=27	=27	=27	=27	=27
8G\	.	8G\yy	.	2r	.	8r	.	8r	.	(16g\LL	.	2ryy	2ryy	8G\	(16G/LL	.	8G\yy	.	8r	.	8r	.	(yy16g\LLyy	.	(yy16gg\LLyy	.
.	.	.	.	.	.	.	.	.	.	16b\)	.	.	.	.	16B/)	.	.	.	.	.	.	.	16b\)yy	.	16bb\)yy	.
8r	.	8ryy	.	.	.	8c\	.	8e 8G/	.	16cc'\	.	.	.	8r	16c'/	.	8ryy	.	8g\	.	8cc 8e/	.	16cc'\yy	.	16ccc'\yy	.
.	.	.	.	.	.	.	.	.	.	16ee'\JJ	.	.	.	.	16e'/JJ	.	.	.	.	.	.	.	16ee'\JJyy	.	16eee'\JJyy	.
8GG/	.	8GG/yy	.	.	.	8r	.	8r	.	(16aa\LL	.	.	.	8GG/	(16a/LL	.	8GG/yy	.	8r	.	8r	.	(yy16aa\LLyy	.	(yy16aaa\LLyy	.
.	.	.	.	.	.	.	.	.	.	16gg\)	.	.	.	.	16g/)	.	.	.	.	.	.	.	16gg\)yy	.	16ggg\)yy	.
8r	.	8ryy	.	.	.	8B/	.	8f 8G/	.	16ff'\	.	.	.	8r	16f'/	.	8ryy	.	8g\	.	8b 8f/	.	16ff'\yy	.	16fff'\yy	.
.	.	.	.	.	.	.	.	.	.	16dd'\JJ	.	.	.	.	16d'/JJ	.	.	.	.	.	.	.	16dd'\JJyy	.	16ddd'\JJyy	.
=28	=28	=28	=28	=28	=28	=28	=28	=28	=28	=28	=28	=28	=28	=28	=28	=28	=28	=28	=28	=28	=28	=28	=28	=28	=28	=28
4C/	.	4C/yy	.	2r;	.	4c/	.	4e 4G/	.	4cc\	.	2ryy	2ryy	4C/	4c/	.	4C/yy	.	4g 4c/	.	4cc 4e/	.	4cc\yy	.	4ccc\yy	.
4r;	.	4r;yy	.	.	.	4r;	.	4r;	.	4r;	.	.	.	4r;	4r;	.	4r;yy	.	4r;	.	4r;	.	4r;yy	.	4r;yy	.
*	*	*	*	*	*	*	*	*	*	*	*	*	*	*	*	*	*	*	*	*	*	*	*	*	*X8va	*
==	==	==	==	==	==	==	==	==	==	==	==	==	==	==	==	==	==	==	==	==	==	==	==	==	==	==
*-	*-	*-	*-	*-	*-	*-	*-	*-	*-	*-	*-	*-	*-	*-	*-	*-	*-	*-	*-	*-	*-	*-	*-	*-	*-	*-
!!!system-decoration: [({s1,s2}s3,s4,s5,s6,s7,s8,s9{g1}s12,s13{s14,s15})]
!!!RDF**kern: < = below
!!!AIN: 1 cbass 1 cello 1 clars 1 cor 3 empty 1 fagot 1 flt 1 oboe 1 timpa 1 tromp 1 tromt 1 viola 1 violn
!!!ENC: Marta Lawrence
!!!END: 2021-05-10
!!!ENC: Krzysztof Stępień
!!!END: 2021-04-26
